X:1
T:9 Lieder and Songs, Op.32
T:Der Strom, der neben mir verrauschte
T:4. Der Strom, der neben mir verrauschte
T:Johannes Brahms
T:August von Platen
T:9 Lieder and Songs, Op.32
T:Creative Commons copyright waiver (CC0 1.0 Universal) 
T:Creative Commons copyright waiver (CC0 1.0 Universal) 
C:Johannes Brahms
Z:August von Platen
Z:Creative Commons copyright waiver (CC0 1.0 Universal)
Z:
L:1/8
M:4/4
K:E
V:1 treble nm="Voice" snm="Vo."
V:1
 z4 z2 G2 | C3 D E3 C | F3 G A2 FD | CE GA B4- |[M:3/2] B2 z2 z4 z2 d2 |[M:4/4] G3 ^A B3 G | %6
w: Der|Strom, der ne- ben|mir ver rausch- te, wo|ist * er * nun?|* Der|Vo- gel, des- sen|
 c3 G F2 EE | DF ^AB c4- |[M:3/2] c2 z2 z4 z2 c2 |[M:4/4] F3 G A2 F2 | A3 B c2 BA | G2 A2 B3 ^B | %12
w: Lied ich lausch- te, wo|ist * er * nun?|* Wo|ist die Ro- se,|die die Freun- din am|Her- zen trug, und|
 c3 c c=G FE | D2 F2 z2 z B | A2 z =c B2 z F | EG A^c d4- | d2 z2 z4 |[M:3/2] z4 z4 z2 G2 | %18
w: je- ner Kuss, der mich be-|rausch- te, wo|ist, wo ist, wo|ist * er * nun?||Und|
[M:4/4] C3 D E3 C | F3 G A2 Fc | ^B2 c2 d3 A | G3 A =B=F E=D | C2 E2 z2 z =d | A2 z =d A2 z A | %24
w: je- ner Mensch, der|ich ge- we- sen, und|den ich längst mit|ei- nem an- dern Ich ver-|tausch- te, wo|ist, wo ist wo|
 =FA c=d e4- | e2 z2 z4 |[M:3/2] z2 A2 G4 c4 |[M:4/4] e8- | e2 z2 z4 | z8 | z8 |] %31
w: ist * er * nun?||wo ist er|nun?||||

